flutter/assets/toolbar/send.svg

<svg width="8" height="8" viewBox="0 0 8 8" fill="none" xmlns="http://www.w3.org/2000/svg">
<path d="M2 0C1.44772 0 1 0.447715 1 1C1 1.55228 1.44772 2 2 2V0ZM7 1H8C8 0.447715 7.55228 0 7 0V1ZM6 6C6 6.55228 6.44772 7 7 7C7.55228 7 8 6.55228 8 6H6ZM0.292893 6.29289C-0.0976311 6.68342 -0.0976311 7.31658 0.292893 7.70711C0.683417 8.09763 1.31658 8.09763 1.70711 7.70711L0.292893 6.29289ZM2 2H7V0H2V2ZM6 1V6H8V1H6ZM6.29289 0.292893L0.292893 6.29289L1.70711 7.70711L7.70711 1.70711L6.29289 0.292893Z" fill="#021C36"/>
</svg>

<svg width="8" height="8" version="1.1" viewBox="0 0 2.1167 2.1167" xml:space="preserve" xmlns="http://www.w3.org/2000/svg"><g transform="translate(-85.705 -121.17)"><g transform="matrix(.26458 0 0 .26458 85.705 121.17)" fill="none"><path d="m2 0c-0.55228 0-1 0.44772-1 1 0 0.55228 0.44772 1 1 1zm5 1h1c0-0.55228-0.44772-1-1-1zm-1 5c0 0.55228 0.44772 1 1 1s1-0.44772 1-1zm-5.7071 0.29289c-0.39052 0.39053-0.39052 1.0237 0 1.4142 0.39052 0.39052 1.0237 0.39052 1.4142 0zm1.7071-4.2929h5v-2h-5zm4-1v5h2v-5zm0.29289-0.70711-6 6 1.4142 1.4142 6-6z" fill="#021c36"/></g></g></svg>
